img/toolbar/elem_add.svg

<svg height="24" width="24" xmlns="http://www.w3.org/2000/svg" xmlns:xlink="http://www.w3.org/1999/xlink">
  <linearGradient id="a" gradientUnits="userSpaceOnUse" x1="3.417697" x2="23.230306" y1="12.191525" y2="12.191525">
    <stop offset="0" stop-color="#0e0f55"/>
    <stop offset="1" stop-color="#a5a6f1"/>
  </linearGradient>
  <linearGradient id="b" gradientUnits="userSpaceOnUse" x1="2.21273" x2="18.562609" y1="9.886662" y2="9.886662">
    <stop offset="0" stop-color="#0e0f55"/>
    <stop offset="1" stop-color="#6a6de8"/>
  </linearGradient>
  <filter id="c" height="1.247969" width="1.23089" x="-.115445" y="-.123985">
    <feGaussianBlur stdDeviation=".33319131"/>
  </filter>
  <path d="m22.480306 12.191525a9.1563044 9.1563044 0 1 1 -18.312609 0 9.1563044 9.1563044 0 1 1 18.312609 0z" fill="#7fe1ff" stroke="url(#a)" stroke-width="1.5" transform="matrix(1.110404 0 0 1.110404 -2.795024 -1.537519)"/>
  <path d="m20.207017 13.864919a7.356617 7.356617 0 1 1 -14.713234 0 7.356617 7.356617 0 1 1 14.713234 0z" fill="#42a5c9" transform="matrix(1.0182088 0 0 1.044442 -.20559 -1.797543)"/>
  <path d="m10.725712 6.1170263a5.0549564 1.7865229 0 1 1 -10.10991257 0 5.0549564 1.7865229 0 1 1 10.10991257 0z" fill="#fff" transform="matrix(.5413208 -.5785258 .5572619 .5619764 .517077 7.098696)"/>
  <path d="m21.331295 14.259586a7.1390228 5.9515977 0 1 1 -14.2780456 0 7.1390228 5.9515977 0 1 1 14.2780456 0z" fill="#7fe1ff" transform="matrix(.7889849 -.7702394 .7249026 .796233 -7.691594 13.225856)"/>
  <path d="m18.312609 9.8866615a7.9249392 7.9249392 0 1 1 -15.8498786 0 7.9249392 7.9249392 0 1 1 15.8498786 0z" fill="none" opacity=".657407" stroke="url(#b)" stroke-width=".499962" transform="matrix(1.1620882 0 0 1.1620882 -.071388 .510827)"/>
  <path d="m18.681998 15.595762a2.9268398 3.6230018 0 1 1 -5.853679 0 2.9268398 3.6230018 0 1 1 5.853679 0z" fill="#d2edf7" filter="url(#c)" transform="matrix(1.4916638 .8992936 -1.1348114 1.4858618 8.533637 -23.368698)"/>
  <path d="m10.725712 6.1170263a5.0549564 1.7865229 0 1 1 -10.10991257 0 5.0549564 1.7865229 0 1 1 10.10991257 0z" fill="#fff" transform="matrix(.4417302 -.4156451 .4547385 .4037551 10.901008 15.916927)"/>
</svg>

<?xml version="1.0" encoding="UTF-8" standalone="no"?>
<!-- Created with Inkscape (http://www.inkscape.org/) -->
<svg
   xmlns:dc="http://purl.org/dc/elements/1.1/"
   xmlns:cc="http://creativecommons.org/ns#"
   xmlns:rdf="http://www.w3.org/1999/02/22-rdf-syntax-ns#"
   xmlns:svg="http://www.w3.org/2000/svg"
   xmlns="http://www.w3.org/2000/svg"
   xmlns:xlink="http://www.w3.org/1999/xlink"
   xmlns:sodipodi="http://sodipodi.sourceforge.net/DTD/sodipodi-0.dtd"
   xmlns:inkscape="http://www.inkscape.org/namespaces/inkscape"
   width="24"
   height="24"
   id="svg2383"
   sodipodi:version="0.32"
   inkscape:version="0.46"
   version="1.0"
   sodipodi:docname="lens.svg"
   inkscape:output_extension="org.inkscape.output.svg.inkscape">
  <defs
     id="defs2385">
    <linearGradient
       id="linearGradient4613">
      <stop
         style="stop-color:#0e0f55;stop-opacity:1;"
         offset="0"
         id="stop4615" />
      <stop
         style="stop-color:#a5a6f1;stop-opacity:1;"
         offset="1"
         id="stop4617" />
    </linearGradient>
    <linearGradient
       id="linearGradient3167">
      <stop
         style="stop-color:#0e0f55;stop-opacity:1;"
         offset="0"
         id="stop3169" />
      <stop
         style="stop-color:#6a6de8;stop-opacity:1;"
         offset="1"
         id="stop3171" />
    </linearGradient>
    <inkscape:perspective
       sodipodi:type="inkscape:persp3d"
       inkscape:vp_x="0 : 16 : 1"
       inkscape:vp_y="0 : 1000 : 0"
       inkscape:vp_z="32 : 16 : 1"
       inkscape:persp3d-origin="16 : 10.666667 : 1"
       id="perspective2391" />
    <linearGradient
       inkscape:collect="always"
       xlink:href="#linearGradient4613"
       id="linearGradient4619"
       x1="3.417697"
       y1="12.191525"
       x2="23.230306"
       y2="12.191525"
       gradientUnits="userSpaceOnUse" />
    <linearGradient
       inkscape:collect="always"
       xlink:href="#linearGradient3167"
       id="linearGradient4633"
       x1="2.2127304"
       y1="9.8866615"
       x2="18.562609"
       y2="9.8866615"
       gradientUnits="userSpaceOnUse" />
    <filter
       inkscape:collect="always"
       id="filter4773">
      <feGaussianBlur
         inkscape:collect="always"
         stdDeviation="0.32465953"
         id="feGaussianBlur4775" />
    </filter>
    <filter
       inkscape:collect="always"
       id="filter4853"
       x="-0.15013888"
       width="1.3002778"
       y="-0.15619973"
       height="1.3123995">
      <feGaussianBlur
         inkscape:collect="always"
         stdDeviation="1.7618857"
         id="feGaussianBlur4855" />
    </filter>
    <filter
       inkscape:collect="always"
       id="filter4886"
       x="-0.11544522"
       width="1.2308904"
       y="-0.12398467"
       height="1.2479693">
      <feGaussianBlur
         inkscape:collect="always"
         stdDeviation="0.33319131"
         id="feGaussianBlur4888" />
    </filter>
  </defs>
  <sodipodi:namedview
     id="base"
     pagecolor="#ffffff"
     bordercolor="#666666"
     borderopacity="1.0"
     inkscape:pageopacity="0.0"
     inkscape:pageshadow="2"
     inkscape:zoom="22.395604"
     inkscape:cx="16.515696"
     inkscape:cy="12.553308"
     inkscape:current-layer="layer1"
     showgrid="true"
     inkscape:grid-bbox="true"
     inkscape:document-units="px"
     inkscape:window-width="1024"
     inkscape:window-height="719"
     inkscape:window-x="-4"
     inkscape:window-y="-4">
    <inkscape:grid
       type="xygrid"
       id="grid2393"
       visible="true"
       enabled="true" />
  </sodipodi:namedview>
  <metadata
     id="metadata2388">
    <rdf:RDF>
      <cc:Work
         rdf:about="">
        <dc:format>image/svg+xml</dc:format>
        <dc:type
           rdf:resource="http://purl.org/dc/dcmitype/StillImage" />
      </cc:Work>
    </rdf:RDF>
  </metadata>
  <g
     id="layer1"
     inkscape:label="Layer 1"
     inkscape:groupmode="layer">
    <path
       sodipodi:type="arc"
       style="fill:#7fe1ff;fill-opacity:1;fill-rule:nonzero;stroke:url(#linearGradient4619);stroke-width:1.5;stroke-miterlimit:4;stroke-dasharray:none;stroke-opacity:1"
       id="path2395"
       sodipodi:cx="13.324001"
       sodipodi:cy="12.191525"
       sodipodi:rx="9.1563044"
       sodipodi:ry="9.1563044"
       d="M 22.480306,12.191525 A 9.1563044,9.1563044 0 1 1 4.167697,12.191525 A 9.1563044,9.1563044 0 1 1 22.480306,12.191525 z"
       transform="matrix(1.110404,0,0,1.110404,-2.7950244,-1.5375186)" />
    <path
       sodipodi:type="arc"
       style="fill:#42a5c9;fill-opacity:1;fill-rule:nonzero;stroke:none;stroke-width:0.50000000000000000;stroke-miterlimit:4;stroke-dasharray:none;stroke-opacity:1;"
       id="path4641"
       sodipodi:cx="12.8504"
       sodipodi:cy="13.864919"
       sodipodi:rx="7.356617"
       sodipodi:ry="7.356617"
       d="M 20.207017,13.864919 A 7.356617,7.356617 0 1 1 5.493783,13.864919 A 7.356617,7.356617 0 1 1 20.207017,13.864919 z"
       transform="matrix(1.0182088,0,0,1.044442,-0.2055897,-1.7975434)" />
    <path
       sodipodi:type="arc"
       style="opacity:1;fill:#ffffff;fill-opacity:1;fill-rule:nonzero;stroke:none;stroke-width:0.58099997000000003;stroke-miterlimit:4;stroke-dasharray:none;stroke-opacity:1"
       id="path4878"
       sodipodi:cx="5.6707559"
       sodipodi:cy="6.1170263"
       sodipodi:rx="5.0549564"
       sodipodi:ry="1.7865229"
       d="M 10.725712,6.1170263 A 5.0549564,1.7865229 0 1 1 0.61579943,6.1170263 A 5.0549564,1.7865229 0 1 1 10.725712,6.1170263 z"
       transform="matrix(0.5413208,-0.5785258,0.5572619,0.5619764,0.5170773,7.0986964)" />
    <path
       sodipodi:type="arc"
       style="fill:#7fe1ff;fill-opacity:1;fill-rule:nonzero;stroke:none;stroke-width:0.5;stroke-miterlimit:4;stroke-dasharray:none;stroke-opacity:1"
       id="path4645"
       sodipodi:cx="14.192272"
       sodipodi:cy="14.259586"
       sodipodi:rx="7.1390228"
       sodipodi:ry="5.9515977"
       d="M 21.331295,14.259586 A 7.1390228,5.9515977 0 1 1 7.0532494,14.259586 A 7.1390228,5.9515977 0 1 1 21.331295,14.259586 z"
       transform="matrix(0.7889849,-0.7702394,0.7249026,0.796233,-7.6915942,13.225856)" />
    <path
       transform="matrix(1.1620882,0,0,1.1620882,-7.1387897e-2,0.510827)"
       d="M 18.312609,9.8866615 A 7.9249392,7.9249392 0 1 1 2.4627304,9.8866615 A 7.9249392,7.9249392 0 1 1 18.312609,9.8866615 z"
       sodipodi:ry="7.9249392"
       sodipodi:rx="7.9249392"
       sodipodi:cy="9.8866615"
       sodipodi:cx="10.38767"
       id="path4625"
       style="fill:none;fill-opacity:1;fill-rule:nonzero;stroke:url(#linearGradient4633);stroke-width:0.49996204999999999;stroke-miterlimit:4;stroke-dasharray:none;stroke-opacity:1;opacity:0.65740741"
       sodipodi:type="arc" />
    <path
       sodipodi:type="arc"
       style="fill:#d2edf7;fill-opacity:1;fill-rule:nonzero;stroke:none;stroke-width:0.50000000000000000;stroke-miterlimit:4;stroke-dasharray:none;stroke-opacity:1;filter:url(#filter4886)"
       id="path4623"
       sodipodi:cx="15.755158"
       sodipodi:cy="15.595762"
       sodipodi:rx="2.9268398"
       sodipodi:ry="3.6230018"
       d="M 18.681998,15.595762 A 2.9268398,3.6230018 0 1 1 12.828319,15.595762 A 2.9268398,3.6230018 0 1 1 18.681998,15.595762 z"
       transform="matrix(1.4916638,0.8992936,-1.1348114,1.4858618,8.5336373,-23.368698)" />
    <path
       transform="matrix(0.4417302,-0.4156451,0.4547385,0.4037551,10.901008,15.916927)"
       d="M 10.725712,6.1170263 A 5.0549564,1.7865229 0 1 1 0.61579943,6.1170263 A 5.0549564,1.7865229 0 1 1 10.725712,6.1170263 z"
       sodipodi:ry="1.7865229"
       sodipodi:rx="5.0549564"
       sodipodi:cy="6.1170263"
       sodipodi:cx="5.6707559"
       id="path4884"
       style="opacity:1;fill:#ffffff;fill-opacity:1;fill-rule:nonzero;stroke:none;stroke-width:0.58099997;stroke-miterlimit:4;stroke-dasharray:none;stroke-opacity:1"
       sodipodi:type="arc" />
  </g>
</svg>
